img/icons/twitterlogo.svg

<svg width="23" height="22" xmlns="http://www.w3.org/2000/svg" fill="none">

 <g>
  <title>Layer 1</title>
  <path id="svg_1" fill="#1A1930" d="m22.9481,2.11484c0.0002,-0.18399 -0.0485,-0.36473 -0.1409,-0.52381c-0.0925,-0.15908 -0.2255,-0.29081 -0.3854,-0.38178c-0.1599,-0.09098 -0.3411,-0.13794 -0.5251,-0.13612c-0.184,0.00183 -0.3642,0.05239 -0.5223,0.14652c-0.6097,0.3629 -1.2661,0.64082 -1.951,0.82604c-0.9782,-0.83934 -2.2257,-1.29863 -3.5146,-1.29394c-1.414,0.00163 -2.772,0.5527 -3.7873,1.53685c-1.0152,0.98415 -1.6083,2.32436 -1.654,3.73761c-2.78749,-0.44452 -5.31389,-1.89946 -7.09741,-4.08736c-0.10747,-0.13038 -0.24471,-0.23301 -0.40015,-0.29922c-0.15544,-0.06622 -0.32453,-0.09409 -0.493,-0.08125c-0.16838,0.01386 -0.33084,0.06853 -0.47334,0.15928c-0.1425,0.09075 -0.26076,0.21484 -0.34454,0.36155c-0.42966,0.74981 -0.67642,1.59038 -0.72026,2.45345c-0.04383,0.86307 0.1165,1.72431 0.46798,2.51379l-0.00203,0.00203c-0.15797,0.0973 -0.28834,0.2335 -0.37864,0.39557c-0.0903,0.16208 -0.1375,0.34461 -0.13711,0.53014c-0.00191,0.15301 0.00727,0.30601 0.02747,0.45781c0.10639,1.31061 0.68727,2.5375 1.63371,3.4505c-0.06421,0.1223 -0.10339,0.2562 -0.11527,0.3938c-0.01188,0.1376 0.00379,0.2763 0.04609,0.4078c0.41262,1.2855 1.29011,2.3709 2.46074,3.0436c-1.18933,0.4599 -2.47352,0.6202 -3.73943,0.4669c-0.2343,-0.0294 -0.47163,0.0217 -0.67307,0.1449c-0.20144,0.1232 -0.35502,0.3113 -0.43556,0.5332c-0.08053,0.222 -0.08323,0.4648 -0.00766,0.6885c0.07558,0.2237 0.22494,0.4151 0.42359,0.5428c2.17718,1.4022 4.71216,2.1478 7.30184,2.1474c2.93675,0.0331 5.80205,-0.9054 8.15025,-2.6693c2.3482,-1.7639 4.0476,-4.2544 4.8339,-7.0841c0.3678,-1.2327 0.5556,-2.51205 0.5575,-3.79841c0,-0.06816 0,-0.13835 -0.001,-0.20852c0.5438,-0.58654 0.9652,-1.27574 1.2392,-2.0272c0.2741,-0.75147 0.3954,-1.55008 0.3568,-2.34903zm-3.4444,3.34574c-0.172,0.20348 -0.2591,0.46542 -0.2431,0.73141c0.0102,0.17187 0.0091,0.34479 0.0091,0.5076c-0.0021,1.08702 -0.1614,2.16802 -0.473,3.20942c-0.6422,2.40769 -2.0738,4.53029 -4.0655,6.02769c-1.9918,1.4975 -4.4284,2.2832 -6.91975,2.2314c-0.89492,0.0003 -1.78675,-0.1049 -2.65706,-0.3133c1.1098,-0.3577 2.14749,-0.9091 3.06498,-1.6286c0.16898,-0.1331 0.29266,-0.3152 0.35405,-0.5213c0.06139,-0.2061 0.05749,-0.4262 -0.01116,-0.63c-0.06865,-0.2039 -0.1987,-0.3815 -0.37229,-0.5084c-0.17359,-0.127 -0.38222,-0.1972 -0.59727,-0.2009c-0.8658,-0.0135 -1.69257,-0.3625 -2.30611,-0.9735c0.15564,-0.0295 0.31027,-0.0661 0.46387,-0.1099c0.22501,-0.064 0.42192,-0.2019 0.55902,-0.3915c0.1371,-0.1896 0.20642,-0.4197 0.19679,-0.6535c-0.00964,-0.2337 -0.09765,-0.4575 -0.24989,-0.6351c-0.15223,-0.1776 -0.35982,-0.2989 -0.58934,-0.3442c-0.50256,-0.0992 -0.97547,-0.3131 -1.38196,-0.6248c-0.40649,-0.3118 -0.73561,-0.713 -0.96179,-1.1727c0.18826,0.0257 0.37772,0.0417 0.56763,0.0478c0.22561,0.0034 0.44645,-0.065 0.6306,-0.19539c0.18415,-0.1304 0.32205,-0.31591 0.39377,-0.52991c0.06873,-0.2159 0.0652,-0.4482 -0.01007,-0.66189c-0.07526,-0.21371 -0.21815,-0.39703 -0.407,-0.52217c-0.45818,-0.30524 -0.8335,-0.71934 -1.09234,-1.20525c-0.25884,-0.4859 -0.39312,-1.02842 -0.39082,-1.57896c0,-0.06917 0.00204,-0.13834 0.00611,-0.2065c2.33465,2.17735 5.36283,3.46088 8.55103,3.62447c0.1609,0.0063 0.3212,-0.024 0.4687,-0.0886c0.1475,-0.0647 0.2784,-0.16206 0.3828,-0.28473c0.1033,-0.12385 0.1764,-0.27 0.2137,-0.42692c0.0372,-0.15693 0.0375,-0.32035 0.0008,-0.47741c-0.0595,-0.24858 -0.0899,-0.50327 -0.0905,-0.75888c0.001,-0.8911 0.3554,-1.74545 0.9855,-2.37556c0.6301,-0.63011 1.4844,-0.98451 2.3755,-0.98545c0.4585,-0.00123 0.9123,0.0926 1.3326,0.27557c0.4204,0.18296 0.7983,0.45109 1.1099,0.78746c0.1201,0.12925 0.2713,0.22562 0.4392,0.27993c0.1679,0.05431 0.3469,0.06477 0.52,0.03037c0.4279,-0.08327 0.8497,-0.19543 1.2624,-0.33569c-0.2815,0.57602 -0.6413,1.11036 -1.0691,1.58789z"/>
 </g>
</svg>

<svg width="23" height="21" viewBox="0 0 23 21" fill="none" xmlns="http://www.w3.org/2000/svg">
<path d="M22.9481 2.11484C22.9483 1.93085 22.8996 1.75011 22.8072 1.59103C22.7147 1.43195 22.5817 1.30022 22.4218 1.20925C22.2619 1.11827 22.0807 1.07131 21.8967 1.07313C21.7127 1.07496 21.5325 1.12552 21.3744 1.21965C20.7647 1.58255 20.1083 1.86047 19.4234 2.04569C18.4452 1.20635 17.1977 0.747055 15.9088 0.751745C14.4948 0.753375 13.1368 1.30445 12.1215 2.2886C11.1063 3.27275 10.5132 4.61296 10.4675 6.02621C7.68001 5.58169 5.15361 4.12675 3.37009 1.93885C3.26262 1.80847 3.12538 1.70584 2.96994 1.63963C2.8145 1.57341 2.64541 1.54554 2.47694 1.55838C2.30856 1.57224 2.1461 1.62691 2.0036 1.71766C1.8611 1.80841 1.74284 1.9325 1.65906 2.07921C1.2294 2.82902 0.982642 3.66959 0.938802 4.53266C0.894972 5.39573 1.0553 6.25697 1.40678 7.04645L1.40475 7.04848C1.24678 7.14578 1.11641 7.28198 1.02611 7.44405C0.935812 7.60613 0.888612 7.78866 0.889002 7.97419C0.887092 8.1272 0.896272 8.2802 0.916472 8.432C1.02286 9.74261 1.60374 10.9695 2.55018 11.8825C2.48597 12.0048 2.44679 12.1387 2.43491 12.2763C2.42303 12.4139 2.4387 12.5526 2.481 12.6841C2.89362 13.9696 3.77111 15.055 4.94174 15.7277C3.75241 16.1876 2.46822 16.3479 1.20231 16.1946C0.968012 16.1652 0.730682 16.2163 0.529242 16.3395C0.327802 16.4627 0.174222 16.6508 0.093682 16.8727C0.013152 17.0947 0.0104519 17.3375 0.0860219 17.5612C0.161602 17.7849 0.310962 17.9763 0.509612 18.104C2.68679 19.5062 5.22177 20.2518 7.81145 20.2514C10.7482 20.2845 13.6135 19.346 15.9617 17.5821C18.3099 15.8182 20.0093 13.3277 20.7956 10.498C21.1634 9.2653 21.3512 7.98595 21.3531 6.69959C21.3531 6.63143 21.3531 6.56124 21.3521 6.49107C21.8959 5.90453 22.3173 5.21533 22.5913 4.46387C22.8654 3.7124 22.9867 2.91379 22.9481 2.11484ZM19.5037 5.46058C19.3317 5.66406 19.2446 5.926 19.2606 6.19199C19.2708 6.36386 19.2697 6.53678 19.2697 6.69959C19.2676 7.78661 19.1083 8.86761 18.7967 9.90901C18.1545 12.3167 16.7229 14.4393 14.7312 15.9367C12.7394 17.4342 10.3028 18.2199 7.81145 18.1681C6.91653 18.1684 6.0247 18.0632 5.15439 17.8548C6.26419 17.4971 7.30188 16.9457 8.21937 16.2262C8.38835 16.0931 8.51203 15.911 8.57342 15.7049C8.63481 15.4988 8.63091 15.2787 8.56226 15.0749C8.49361 14.871 8.36356 14.6934 8.18997 14.5665C8.01638 14.4395 7.80775 14.3693 7.5927 14.3656C6.7269 14.3521 5.90013 14.0031 5.28659 13.3921C5.44223 13.3626 5.59686 13.326 5.75046 13.2822C5.97547 13.2182 6.17238 13.0803 6.30948 12.8907C6.44658 12.7011 6.5159 12.471 6.50627 12.2372C6.49663 12.0035 6.40862 11.7797 6.25638 11.6021C6.10415 11.4245 5.89656 11.3032 5.66704 11.2579C5.16448 11.1587 4.69157 10.9448 4.28508 10.6331C3.87859 10.3213 3.54947 9.9201 3.32329 9.4604C3.51155 9.4861 3.70101 9.5021 3.89092 9.5082C4.11653 9.5116 4.33737 9.4432 4.52152 9.31281C4.70567 9.18241 4.84357 8.9969 4.91529 8.7829C4.98402 8.567 4.98049 8.3347 4.90522 8.12101C4.82996 7.9073 4.68707 7.72398 4.49822 7.59884C4.04004 7.2936 3.66472 6.8795 3.40588 6.39359C3.14704 5.90769 3.01276 5.36517 3.01506 4.81463C3.01506 4.74546 3.0171 4.67629 3.02117 4.60813C5.35582 6.78548 8.384 8.06901 11.5722 8.2326C11.7331 8.2389 11.8934 8.2086 12.0409 8.144C12.1884 8.0793 12.3193 7.98194 12.4237 7.85927C12.527 7.73542 12.6001 7.58927 12.6374 7.43235C12.6746 7.27542 12.6749 7.112 12.6382 6.95494C12.5787 6.70636 12.5483 6.45167 12.5477 6.19606C12.5487 5.30496 12.9031 4.45061 13.5332 3.8205C14.1633 3.19039 15.0176 2.83599 15.9087 2.83505C16.3672 2.83382 16.821 2.92765 17.2413 3.11062C17.6617 3.29358 18.0396 3.56171 18.3512 3.89808C18.4713 4.02733 18.6225 4.1237 18.7904 4.17801C18.9583 4.23232 19.1373 4.24278 19.3104 4.20838C19.7383 4.12511 20.1601 4.01295 20.5728 3.87269C20.2913 4.44871 19.9315 4.98305 19.5037 5.46058Z" fill="#1A1930"/>
</svg>
